mono/mastercard.svg

<svg xmlns="http://www.w3.org/2000/svg" fill="none" viewBox="0 0 780 500"><path fill="#393939" d="M513.444 443.897c0-8.204 5.281-14.946 13.99-14.946 8.203 0 13.99 6.293 13.99 14.946 0 8.203-5.787 14.945-13.99 14.945-8.653-.506-13.99-6.799-13.99-14.945ZM392.42 428.446c6.293 0 10.619 3.876 11.574 11.068h-24.103c.955-6.236 5.281-11.068 12.529-11.068ZM606.543 443.897c0-8.204 5.282-14.946 13.99-14.946 8.204 0 13.991 6.293 13.991 14.946 0 8.203-5.787 14.945-13.991 14.945-8.708-.506-13.99-6.799-13.99-14.945ZM230.381 443.897c0-8.204 5.281-14.946 13.99-14.946 8.203 0 13.99 6.293 13.99 14.946 0 8.203-5.787 14.945-13.99 14.945-8.709-.506-13.99-6.799-13.99-14.945Z"/><path fill="#393939" fill-rule="evenodd" d="M736.038 0H41.458C18.571 0 0 18.975 0 42.383v414.23c0 23.413 18.562 42.384 41.458 42.384h694.58c22.889 0 41.459-18.976 41.459-42.384V42.383C777.497 18.971 758.935 0 736.038 0ZM211.053 467.045v-28.936c0-11.068-6.742-18.316-18.317-18.316-5.787 0-12.079 1.91-16.406 8.203-3.371-5.281-8.203-8.203-15.451-8.203-4.832 0-9.664 1.461-13.484 6.742v-5.787h-10.114v46.297h10.114v-25.564c0-8.203 4.326-12.08 11.068-12.08s10.114 4.326 10.114 12.08v25.564h10.113v-25.564c0-8.203 4.832-12.08 11.069-12.08 6.742 0 10.113 4.326 10.113 12.08v25.564h11.181Zm149.959-46.297h-16.35v-13.99h-10.113v13.99h-9.158v9.158h9.158v21.239c0 10.619 4.326 16.855 15.9 16.855 4.327 0 9.159-1.461 12.53-3.371l-2.922-8.709c-2.922 1.911-6.293 2.416-8.709 2.416-4.832 0-6.742-2.921-6.742-7.697v-20.733h16.406v-9.158Zm85.908-1.011c-5.787 0-9.664 2.921-12.08 6.742v-5.787h-10.113v46.297h10.113v-26.07c0-7.698 3.371-12.08 9.664-12.08 1.91 0 4.326.506 6.293.955l2.921-9.664c-2.022-.393-4.888-.393-6.798-.393Zm-129.733 4.832c-4.832-3.371-11.574-4.832-18.822-4.832-11.574 0-19.271 5.787-19.271 14.945 0 7.698 5.787 12.08 15.9 13.485l4.832.505c5.282.956 8.203 2.416 8.203 4.832 0 3.371-3.877 5.787-10.619 5.787s-12.08-2.416-15.451-4.831l-4.832 7.697c5.282 3.877 12.53 5.787 19.777 5.787 13.485 0 21.239-6.293 21.239-14.945 0-8.203-6.293-12.53-15.901-13.991l-4.832-.505c-4.326-.506-7.697-1.461-7.697-4.327 0-3.371 3.371-5.281 8.708-5.281 5.788 0 11.575 2.416 14.496 3.877l4.27-8.203Zm269.073-4.832c-5.787 0-9.664 2.921-12.08 6.742v-5.787h-10.113v46.297h10.113v-26.07c0-7.698 3.371-12.08 9.664-12.08 1.911 0 4.326.506 6.293.955l2.922-9.552c-1.967-.505-4.832-.505-6.799-.505Zm-129.227 24.16c0 13.99 9.664 24.103 24.61 24.103 6.742 0 11.574-1.461 16.406-5.281l-4.832-8.203c-3.877 2.921-7.698 4.326-12.08 4.326-8.203 0-13.99-5.787-13.99-14.945 0-8.709 5.787-14.496 13.99-14.946 4.326 0 8.203 1.461 12.08 4.327l4.832-8.204c-4.832-3.876-9.664-5.281-16.406-5.281-14.946-.056-24.61 10.113-24.61 24.104Zm93.549-23.149h-10.113v5.787c-3.371-4.326-8.203-6.742-14.496-6.742-13.035 0-23.148 10.113-23.148 24.104 0 13.99 10.113 24.103 23.148 24.103 6.742 0 11.574-2.416 14.496-6.742v5.787h10.113v-46.297Zm-158.162-1.011c-13.485 0-23.149 9.664-23.149 24.103 0 14.496 9.664 24.104 23.655 24.104 6.742 0 13.484-1.91 18.822-6.293l-4.832-7.248c-3.877 2.922-8.709 4.832-13.485 4.832-6.292 0-12.529-2.921-13.99-11.068h34.217v-3.877c.45-14.889-8.259-24.553-21.238-24.553Zm251.262-17.305h-10.114v24.103c-3.371-4.326-8.203-6.742-14.495-6.742-13.036 0-23.149 10.113-23.149 24.104 0 13.99 10.113 24.103 23.149 24.103 6.742 0 11.574-2.416 14.495-6.742v5.787h10.114v-64.613Zm-375.713 18.316h-10.114v5.787c-3.371-4.326-8.203-6.742-14.495-6.742-13.035 0-23.149 10.113-23.149 24.104 0 13.99 10.114 24.103 23.149 24.103 6.742 0 11.574-2.416 14.495-6.742v5.787h10.114v-46.297Zm15.018-42.29c-95.627 0-173.354-77.603-173.354-173.354 0-95.376 77.727-173.104 173.354-172.9788 34.045 0 67.464 10.1383 95.751 28.9131-90.619 74.2227-91.245 214.2827 0 288.5057-28.287 18.65-61.706 28.914-95.751 28.914Zm107.016-37.175c88.242-68.84 87.866-203.018 0-272.2341-87.866 69.2161-88.241 203.5191 0 272.2341ZM497.019 32c95.627 0 173.354 77.728 173.354 173.104 0 95.751-77.727 173.354-173.354 173.228-33.794 0-67.464-10.138-95.751-28.913 91.621-73.847 90.244-214.283 0-288.5058C429.555 42.2636 462.974 32 497.019 32Z" clip-rule="evenodd"/></svg>

<svg width="780" height="500" viewBox="0 0 780 500" fill="none" xmlns="http://www.w3.org/2000/svg">
<path d="M513.444 443.897C513.444 435.693 518.725 428.951 527.434 428.951C535.637 428.951 541.424 435.244 541.424 443.897C541.424 452.1 535.637 458.842 527.434 458.842C518.781 458.336 513.444 452.043 513.444 443.897Z" fill="#393939"/>
<path d="M392.42 428.446C398.713 428.446 403.039 432.322 403.994 439.514H379.891C380.846 433.278 385.172 428.446 392.42 428.446Z" fill="#393939"/>
<path d="M606.543 443.897C606.543 435.693 611.825 428.951 620.533 428.951C628.737 428.951 634.524 435.244 634.524 443.897C634.524 452.1 628.737 458.842 620.533 458.842C611.825 458.336 606.543 452.043 606.543 443.897Z" fill="#393939"/>
<path d="M230.381 443.897C230.381 435.693 235.662 428.951 244.371 428.951C252.574 428.951 258.361 435.244 258.361 443.897C258.361 452.1 252.574 458.842 244.371 458.842C235.662 458.336 230.381 452.043 230.381 443.897Z" fill="#393939"/>
<path fill-rule="evenodd" clip-rule="evenodd" d="M736.038 0H41.458C18.571 0 0 18.975 0 42.383V456.613C0 480.026 18.562 498.997 41.458 498.997H736.038C758.927 498.997 777.497 480.021 777.497 456.613V42.383C777.497 18.971 758.935 0 736.038 0ZM211.053 467.045V438.109C211.053 427.041 204.311 419.793 192.736 419.793C186.949 419.793 180.657 421.703 176.33 427.996C172.959 422.715 168.127 419.793 160.879 419.793C156.047 419.793 151.215 421.254 147.395 426.535V420.748H137.281V467.045H147.395V441.481C147.395 433.278 151.721 429.401 158.463 429.401C165.205 429.401 168.577 433.727 168.577 441.481V467.045H178.69V441.481C178.69 433.278 183.522 429.401 189.759 429.401C196.501 429.401 199.872 433.727 199.872 441.481V467.045H211.053ZM361.012 420.748H344.662V406.758H334.549V420.748H325.391V429.906H334.549V451.145C334.549 461.764 338.875 468 350.449 468C354.776 468 359.608 466.539 362.979 464.629L360.057 455.92C357.135 457.831 353.764 458.336 351.348 458.336C346.516 458.336 344.606 455.415 344.606 450.639V429.906H361.012V420.748ZM446.92 419.737C441.133 419.737 437.256 422.658 434.84 426.479V420.692H424.727V466.989H434.84V440.919C434.84 433.221 438.211 428.839 444.504 428.839C446.414 428.839 448.83 429.345 450.797 429.794L453.718 420.13C451.696 419.737 448.83 419.737 446.92 419.737ZM317.187 424.569C312.355 421.198 305.613 419.737 298.365 419.737C286.791 419.737 279.094 425.524 279.094 434.682C279.094 442.38 284.881 446.762 294.994 448.167L299.826 448.672C305.108 449.628 308.029 451.088 308.029 453.504C308.029 456.875 304.152 459.291 297.41 459.291C290.668 459.291 285.33 456.875 281.959 454.46L277.127 462.157C282.409 466.034 289.657 467.944 296.904 467.944C310.389 467.944 318.143 461.651 318.143 452.999C318.143 444.796 311.85 440.469 302.242 439.008L297.41 438.503C293.084 437.997 289.713 437.042 289.713 434.176C289.713 430.805 293.084 428.895 298.421 428.895C304.209 428.895 309.996 431.311 312.917 432.772L317.187 424.569ZM586.26 419.737C580.473 419.737 576.596 422.658 574.18 426.479V420.692H564.067V466.989H574.18V440.919C574.18 433.221 577.551 428.839 583.844 428.839C585.755 428.839 588.17 429.345 590.137 429.794L593.059 420.242C591.092 419.737 588.227 419.737 586.26 419.737ZM457.033 443.897C457.033 457.887 466.697 468 481.643 468C488.385 468 493.217 466.539 498.049 462.719L493.217 454.516C489.34 457.437 485.519 458.842 481.137 458.842C472.934 458.842 467.147 453.055 467.147 443.897C467.147 435.188 472.934 429.401 481.137 428.951C485.463 428.951 489.34 430.412 493.217 433.278L498.049 425.074C493.217 421.198 488.385 419.793 481.643 419.793C466.697 419.737 457.033 429.906 457.033 443.897ZM550.582 420.748H540.469V426.535C537.098 422.209 532.266 419.793 525.973 419.793C512.938 419.793 502.825 429.906 502.825 443.897C502.825 457.887 512.938 468 525.973 468C532.715 468 537.547 465.584 540.469 461.258V467.045H550.582V420.748ZM392.42 419.737C378.935 419.737 369.271 429.401 369.271 443.84C369.271 458.336 378.935 467.944 392.926 467.944C399.668 467.944 406.41 466.034 411.748 461.651L406.916 454.403C403.039 457.325 398.207 459.235 393.431 459.235C387.139 459.235 380.902 456.314 379.441 448.167H413.658V444.29C414.108 429.401 405.399 419.737 392.42 419.737ZM643.682 402.432H633.568V426.535C630.197 422.209 625.365 419.793 619.073 419.793C606.037 419.793 595.924 429.906 595.924 443.897C595.924 457.887 606.037 468 619.073 468C625.815 468 630.647 465.584 633.568 461.258V467.045H643.682V402.432ZM267.969 420.748H257.855V426.535C254.484 422.209 249.652 419.793 243.36 419.793C230.325 419.793 220.211 429.906 220.211 443.897C220.211 457.887 230.325 468 243.36 468C250.102 468 254.934 465.584 257.855 461.258V467.045H267.969V420.748ZM282.987 378.458C187.36 378.458 109.633 300.855 109.633 205.104C109.633 109.728 187.36 32 282.987 32.1252C317.032 32.1252 350.451 42.2635 378.738 61.0383C288.119 135.261 287.493 275.321 378.738 349.544C350.451 368.194 317.032 378.458 282.987 378.458ZM390.003 341.283C478.245 272.443 477.869 138.265 390.003 69.0489C302.137 138.265 301.762 272.568 390.003 341.283ZM497.019 32C592.646 32 670.373 109.728 670.373 205.104C670.373 300.855 592.646 378.458 497.019 378.332C463.225 378.332 429.555 368.194 401.268 349.419C492.889 275.572 491.512 135.136 401.268 60.9132C429.555 42.2636 462.974 32 497.019 32Z" fill="#393939"/>
</svg>
